X:1
T:Longford Collector, The
R:reel
D:Michael Coleman
D:Davy Spillane: Shadow Hunter
Z:id:hn-reel-204
M:4/4
L:1/8
K:G
~G3A Bcdg|eB~B2 egdB|GFGA BcdB|AcBA GEDE|
GFGA Bcdg|eB~B2 d2ef|g2af gedB|1 AcBA GEDE:|2 AcBA GED2|]
~g3a gfed|eB~B2 d2ef|gfga gedB|AcBA GED2|
gfga gfed|eB~B2 d2ef|g2af gedB|1 AcBA GED2:|2 AcBA GEDE|]
